PortableApps/LibreOfficePortable/App/libreoffice/help/media/icon-themes/cmd/sc_displaymasterbackground.svg

<svg viewBox="0 0 16 16" xmlns="http://www.w3.org/2000/svg"><path d="m3 1c-.554 0-1 .446-1 1v13c0 .554.446 1 1 1h10c.554 0 1-.446 1-1v-13c0-.554-.446-1-1-1zm0 1h10v6l-4 4-2-2-4 5z" fill="#4d82b8"/><path d="m3 2v13l4-5 2 2 4-4v-6z" fill="#fff"/><circle cx="6.5" cy="5.5" fill="#eac282" r="2.5"/><path d="m0 0v12l12-12zm1 1h8l-8 8z" fill="#4d82b8"/><path d="m1 1h8l-8 8z" fill="#fff"/></svg>

<svg viewBox="0 0 16 16" xmlns="http://www.w3.org/2000/svg">
  <path d="M 3 1 C 2.446 1 2 1.446 2 2 L 2 15 C 2 15.554 2.446 16 3 16 L 13 16 C 13.554 16 14 15.554 14 15 L 14 2 C 14 1.446 13.554 1 13 1 L 3 1 z M 3 2 L 13 2 L 13 8 L 9 12 L 7 10 L 3 15 L 3 2 z " fill="#4d82b8"/>
  <path d="m 3,2 v 13 l 4,-5 2,2 4,-4 V 2 Z" fill="#ffffff"/>
  <circle cx="6.5" cy="5.5" r="2.5" fill="#eac282"/>
  <path d="M 0,0 V 12 L 12,0 Z M 1,1 H 9 L 1,9 Z" fill="#4d82b8"/>
  <path d="M 1,1 H 9 L 1,9 Z" fill="#ffffff"/></svg>
